src/drawer/activities/components/assets/icon-activities-empty-state.svg

<?xml version="1.0" encoding="UTF-8"?>
<svg width="70px" height="100px" viewBox="0 0 70 100" version="1.1" xmlns="http://www.w3.org/2000/svg" xmlns:xlink="http://www.w3.org/1999/xlink">
    <!-- Generator: Sketch 61 (89581) - https://sketch.com -->
    <title>tasks_emptystate</title>
    <desc>Created with Sketch.</desc>
    <defs>
        <polygon id="path-1" points="0 4.26325641e-14 57.8846154 4.26325641e-14 57.8846154 9.45945946 0 9.45945946"></polygon>
    </defs>
    <g id="Tasks-design-exploration-20/11" stroke="none" stroke-width="1" fill="none" fill-rule="evenodd">
        <g id="Artboard" transform="translate(-160.000000, -453.000000)">
            <g id="illustration/product/device/clipboard-check-tick-done-(23)-candy" transform="translate(145.000000, 453.000000)">
                <g id="Group" transform="translate(15.000000, 0.000000)">
                    <path d="M1.34615385,2.7027027 L1.34615385,91.7483438 C1.34615385,96.3054901 5.04353259,100 9.60588206,100 L61.7416212,100 C66.3026213,100 70,96.3054901 70,91.7483438 L70,11.0055779 C70,6.44843164 66.3026213,2.7027027 61.7416212,2.7027027 L1.34615385,2.7027027 Z" id="Fill-4" fill="#EC0677"></path>
                    <polygon id="Fill-6" fill="#C5C9CE" opacity="0.4" style="mix-blend-mode: multiply;" points="6.73076923 90.5405405 64.6153846 90.5405405 64.6153846 72.972973 6.73076923 72.972973"></polygon>
                    <path d="M6.73076923,10.8108108 L6.73076923,78.3783784 L58.1159925,78.3783784 C61.7060421,78.3783784 64.6153846,75.4991207 64.6153846,71.9461949 L64.6153846,10.8108108 L6.73076923,10.8108108 Z" id="Fill-8" fill="#FFFFFF"></path>
                    <g id="Group-12" transform="translate(0.000000, 68.918919)">
                        <mask id="mask-2" fill="white">
                            <use xlink:href="#path-1"></use>
                        </mask>
                        <g id="Clip-11"></g>
                        <path d="M51.3876405,3.15315315 L51.3876405,4.26325641e-14 L7.10534604e-15,4.26325641e-14 L7.10534604e-15,3.15315315 C7.10534604e-15,6.63668698 2.90947933,9.45945946 6.49697489,9.45945946 L45.4788243,9.45945946 L57.8846154,9.45945946 C54.2971198,9.45945946 51.3876405,6.63668698 51.3876405,3.15315315" id="Fill-10" fill="#E0E2E4" mask="url(#mask-2)"></path>
                    </g>
                    <path d="M42.6592225,7.21069196 C42.6592225,3.22706664 39.5316147,0 35.6737432,0 C31.8145391,0 28.6869313,3.22706664 28.6869313,7.21069196 L16.1538462,7.21069196 L16.1538462,13.5135135 L55.1923077,13.5135135 L55.1923077,7.21069196 L42.6592225,7.21069196 Z" id="Fill-13" fill="#2E3E4F"></path>
                    <polygon id="Fill-15" fill="#E0E2E4" points="24.2307692 48.6486486 43.0769231 48.6486486 43.0769231 29.7297297 24.2307692 29.7297297"></polygon>
                    <polyline id="Stroke-17" stroke="#828B95" stroke-width="2.7027027" stroke-linecap="round" stroke-linejoin="round" points="28.2692308 36.8280396 34.3561193 43.2432432 48.4615385 28.3783784"></polyline>
                </g>
            </g>
        </g>
    </g>
</svg>

<svg width="70" height="100" xmlns="http://www.w3.org/2000/svg" xmlns:xlink="http://www.w3.org/1999/xlink"><defs><path id="a" d="M0 0h57.885v9.46H0z"/></defs><g fill="none" fill-rule="evenodd"><path d="M1.346 2.703v89.045c0 4.557 3.698 8.252 8.26 8.252h52.136c4.56 0 8.258-3.695 8.258-8.252V11.006c0-4.558-3.697-8.303-8.258-8.303H1.346z" fill="#EC0677"/><path fill="#C5C9CE" opacity=".4" style="mix-blend-mode:multiply" d="M6.73 90.54h57.885V72.974H6.731z"/><path d="M6.73 10.81v67.568h51.386c3.59 0 6.5-2.879 6.5-6.432V10.811H6.73z" fill="#FFF"/><g transform="translate(0 68.919)"><mask id="b" fill="#fff"><use xlink:href="#a"/></mask><path d="M51.388 3.153V0H0v3.153C0 6.637 2.91 9.46 6.497 9.46h51.388c-3.588 0-6.497-2.822-6.497-6.306" fill="#E0E2E4" mask="url(#b)"/></g><path d="M42.66 7.21c0-3.983-3.128-7.21-6.986-7.21-3.86 0-6.987 3.227-6.987 7.21H16.154v6.304h39.038V7.21H42.66z" fill="#2E3E4F"/><path fill="#E0E2E4" d="M24.23 48.649h18.847v-18.92H24.23z"/><path stroke="#828B95" stroke-width="2.703" stroke-linecap="round" stroke-linejoin="round" d="M28.27 36.828l6.086 6.415 14.106-14.865"/></g></svg>
